src/lib/packages/icons/src/assets/filled/notebook.svg

<svg width="24" height="24" viewBox="0 0 24 24" fill="none" xmlns="http://www.w3.org/2000/svg">
<path d="M17 3H7.5C5.5 3 4.5 4 4.5 6V7.25H3C2.586 7.25 2.25 7.586 2.25 8C2.25 8.414 2.586 8.75 3 8.75H4.5V15.25H3C2.586 15.25 2.25 15.586 2.25 16C2.25 16.414 2.586 16.75 3 16.75H4.5V18C4.5 20 5.5 21 7.5 21H17C19 21 20 20 20 18V6C20 4 19 3 17 3ZM16 11C16 11.667 15.667 12 15 12H10C9.333 12 9 11.667 9 11V8C9 7.333 9.333 7 10 7H15C15.667 7 16 7.333 16 8V11Z" fill="currentColor"/>
</svg>

<svg xmlns="http://www.w3.org/2000/svg" width="24" height="24" fill="none"><path fill="currentColor" d="M17 3H7.5c-2 0-3 1-3 3v1.25H3a.75.75 0 0 0 0 1.5h1.5v6.5H3a.75.75 0 0 0 0 1.5h1.5V18c0 2 1 3 3 3H17c2 0 3-1 3-3V6c0-2-1-3-3-3Zm-1 8c0 .667-.333 1-1 1h-5c-.667 0-1-.333-1-1V8c0-.667.333-1 1-1h5c.667 0 1 .333 1 1v3Z"/></svg>
